!!!OTL: ALLES SCHWEIGE JEDER NEIGE
!!!ARE: Europa, Mitteleuropa, Deutschland
!!!SCT: B0546
!!!YEM: Copyright 1995, estate of Helmut Schaffrath.
**kern
*ICvox
*Ivox
!! Mixed meters:  3/2; 4/4
*M3/2
*k[b-]
*F:
{8cc
8a
8b-
8g
=1
2f
2c
4f
4g
=2
*M4/4
2a
2f}
=3
{4a
4b-
=4
*M3/2
2cc
2dd
4cc
4b-
=5
*M4/4
2b-
2a}
=6
{8cc
8a
8b-
8g
=7
*M3/2
2f
2c
4f
4g
=8
*M4/4
2a
2f}
=9
{4a
4b-
=10
*M3/2
2cc
2dd
4cc
4b-
=11
*M4/4
2b-
2a}
=12
{4.cc
8a
4f
4ff
=13
4.dd
8cc
4b-
4a}
=14
{4.g
8a
4b-
4g
=15
4.cc
8b-
4a
4g}
=16
{2f
2g
=17
4a
4b-
4cc
8dd
8b-
=18
2a
2g
=19
2f
2r}
=20
{4.cc
8a
4f
4ff
=21
4.dd
8cc
4b-
4a}
=22
{4.g
8a
4b-
4g
=23
4.cc
8b-
4a
4g}
=24
{2f
2g
=25
4a
4b-
4cc
8dd
8b-
=26
2a
2g
=27
2f
2r}
==
!!!AGN: Studenten -, Burschenschafts - Lied, national
!!!ONB: ESAC (Essen Associative Code) Database: BOEHME
!!!AMT: irregular
!!!AIN: vox
!!!EED: Helmut Schaffrath
!!!EEV: 1.0
*-
